X:1
T:Trio, Op.92 II 
T:Charles Koechlin (1867 - 1950)
%%score 1 2 3
L:1/8
Q:1/2=80
M:2/2
K:F
V:1 treble nm="Piano"
V:2 treble nm="Piano"
V:3 bass nm="Piano"
V:1
 z8 | z8 | z8 | z8 | z8 | z8 | z8 | z8 | z8 | z8 || A8 | c8 | e8 | g8 | f8 | e8 | d8 | c8 | =B8 | %19
 A8- || A4 d4- | d4 c4- | c4 f4- | f2 d2 e2 f2 | g2 b2 a2 g2 | c'4 f4- | f4 e4- | e2 A2 d4- | %28
 d4 c4 | d8- || d4 c2 =B2 | A6 c2 | G2 F2 G4- | G2 d2 =B2 c2 | d2 e2 f2 g2 | a4- (3a2 e2 f2 | %36
 g4 a2 =b2 | c'2 d'2 e'2 f'2 | e'6 d'2 | c'2 =b2 a4- || a4 g2 a2 | =b2 c'2 (3b2 a2 g2 | ^f6 d2 | %43
 =B2 A2 B4- | B2 c2 (3A2 =B2 c2 | d2 e2 ^f2 g2 | a2 =b2 c'2 a2 | e'4 e4- | e4 d4 | e6 E2 || =F8- | %51
 F4 E2 A2 | =B4 e2 d2 | c6 =B2 | A2 G2 F2 G2 | A4 =B2 c2 | F6 f2 | e4 a2 e2 | d2 e2 f2 g2 | c8 | %60
 d8 | f8 | a8 | c'8 | b8 | a8 | g8 | f8 | e8 | d8 || d6 c2 | d4- (3d2 e2 f2 | d4 c2 B2 | %73
 A2 G2 A2 B2 | c2 _e2 g4- | g2 a2 ^f2 g2 | a4- (3a2 b2 c'2 | d'6 d2 | f2 _e2 d2 c2 | B2 A2 G4- || %80
 G4 F2 G2 | A2 B2 (3c2 d2 e2 | f2 g2 a4- | a4 g2 e2 | d2 c2 d4- | d2 e2 c4- | c4 (3B2 c2 B2 | %87
 A2 F2 D4- | D4 C4 | D8 || F8 | A8 | c8 | B8 | A8 | G8 | F8 | E8 | D8 |] %99
V:2
 D8 | F8 | A8 | c8 | B8 | A8 | G8 | F8 | E8 | D8- || D4 C4- | C2 =B,2 A,2 A2 | G2 F2 E4- | E4 e4- | %14
 e4 d4- | d2 =B2 c2 A2 | F2 E2 F2 G2 | A4 A,4- | A,4 G,4 | A,2 C2 A,2 G,2 || F,2 E,2 F,2 D,2 | %21
 A,4 =B,2 A,2 | C6 A2 | G4 F2 E2 | D4 d4 | c4- (3c2 B2 A2 | B2 c2 d2 e2 | f4 g2 a2 | g6 G2 | A8 || %30
 A,8 | C8 | E8 | G8 | F8 | E8 | D8 | C8 | =B,8 | A,8 || z4 =B,4- | B,4 E4- | E4 D2 E2 | ^F6 D2 | %44
 E4 A4- | A4 G4- | G4 ^F4 | =B6 c2 | A4- (3A2 =B2 A2 | G2 ^F2 E4 || A8- | A8 | e8 | g8 | f8 | e8 | %56
 d8 | c8 | =B8 | A8 | z2 D,2 D2 C2 | B,4 A,2 G,2 | F,4 F4- | F2 G2 E2 C2 | D2 E2 F2 G2 | %65
 A2 B2 c2 d2 | e2 f2 e4- | e2 A2 d4- | d2 e2 c2 B2 | A2 G2 F4 || B4 A2 G2 | F2 E2 D4- | D4 F4 | %73
 C4 B,2 A,2 | G,6 G2 | A4 D4 | (3E2 ^F2 G2 A4- | A2 B2 G4 | F6 EF | G2 D2 B,4 || D8 | F8 | A8 | %83
 c8 | B8 | A8 | G8 | F8 | E8 | D4 D4- || D4 B,4 | F,6 G,2 | A,4 F,4 | G,2 A,2 B,2 C2 | D6 C2 | %95
 B,2 C2 D2 E2 | A,4 D4- | D4 C4 | D8 |] %99
V:3
 z8 | z8 | z8 | z8 | z8 | z8 | z8 | z8 | z8 | z8 || z8 | z8 | z8 | z8 | z8 | z8 | z8 | z8 | z8 | %19
 z8 || D,8 | F,8 | A,8 | C8 | B,8 | A,8 | G,8 | F,8 | E,8 | D,8 || z4 A,4- | A,2 G,2 F,2 A,2 | %32
 C4 D2 C2 | =B,2 A,2 G,4 | D,4 D4- | D4 C4- | C4 =B,4- | B,4 A,4- | A,4 G,4 | A,6 z2 || E,8 | G,8 | %42
 =B,8 | D8 | C8 | =B,8 | A,8 | G,8 | ^F,8 | E,8- || E,4 D,4 | A,8- | A,4 G,2 F,2 | E,2 D,2 C,4 | %54
 D,4 D4- | D4 C4- | C4 _B,4- | B,4 A,4- | A,4 G,4 | A,8 | z8 | z2 D2 F2 E2 | D4 C2 B,2 | A,8- | %64
 A,4 G,4- | G,4 F,4 | C4- (3C2 B,2 C2 | D6 D,2 | A,8 | D,8 || G,,8 | B,,8 | D,8 | F,8 | _E,8 | %75
 D,8 | C,8 | B,,8 | A,,8 | G,,8 || z8 | z8 | z8 | z8 | z8 | z8 | z8 | z8 | z8 | z8 || z8 | z8 | %92
 z8 | z8 | z4 D,,4 | G,,2 A,,2 B,,2 C,2 | D,2 E,2 F,2 G,2 | A,2 B,2 A,4 | D4 z4 |] %99

